X:56
T:Walshe's Polka
R:polka
H:Also played in G, #118
Z:id:hn-polka-56
M:2/4
L:1/8
K:A
A>B cB|AF FE|CE FE|CE FE|A>B cB|AF FE|CE FE|1 A2 AE:|2 A2 A2||
|:ab/a/ ga|ba af|ec cB|AB ce|ab/a/ ga|ba af|ec cB|1 A2 A2:|2 A2 E2||
<end>
<start>
